build/img/social__tw.svg

<svg width="30" height="30" fill="none" xmlns="http://www.w3.org/2000/svg"><g clip-path="url(#clip0)"><path d="M23 10.039a6.839 6.839 0 01-1.89.518 3.262 3.262 0 001.443-1.813 6.555 6.555 0 01-2.08.794 3.28 3.28 0 00-5.674 2.243c0 .26.022.51.076.748a9.284 9.284 0 01-6.761-3.431 3.285 3.285 0 001.008 4.384 3.24 3.24 0 01-1.482-.404v.036a3.295 3.295 0 002.628 3.223 3.274 3.274 0 01-.86.108 2.9 2.9 0 01-.621-.056 3.311 3.311 0 003.065 2.285 6.59 6.59 0 01-4.067 1.399c-.269 0-.527-.012-.785-.045a9.234 9.234 0 005.032 1.472c6.036 0 9.336-5 9.336-9.334 0-.145-.005-.285-.012-.424A6.544 6.544 0 0023 10.039z" fill="#fff"/></g><path d="M29.25 15c0 7.87-6.38 14.25-14.25 14.25S.75 22.87.75 15 7.13.75 15 .75 29.25 7.13 29.25 15z" stroke="#fff" stroke-width="1.5"/><defs><clipPath id="clip0"><path fill="#fff" transform="translate(7 7)" d="M0 0h16v16H0z"/></clipPath></defs></svg>

<svg width="30" height="30" viewBox="0 0 30 30" fill="none" xmlns="http://www.w3.org/2000/svg">
<g clip-path="url(#clip0)">
<path d="M23 10.039C22.405 10.3 21.771 10.473 21.11 10.557C21.79 10.151 22.309 9.513 22.553 8.744C21.919 9.122 21.219 9.389 20.473 9.538C19.871 8.897 19.013 8.5 18.077 8.5C16.261 8.5 14.799 9.974 14.799 11.781C14.799 12.041 14.821 12.291 14.875 12.529C12.148 12.396 9.735 11.089 8.114 9.098C7.831 9.589 7.665 10.151 7.665 10.756C7.665 11.892 8.25 12.899 9.122 13.482C8.595 13.472 8.078 13.319 7.64 13.078C7.64 13.088 7.64 13.101 7.64 13.114C7.64 14.708 8.777 16.032 10.268 16.337C10.001 16.41 9.71 16.445 9.408 16.445C9.198 16.445 8.986 16.433 8.787 16.389C9.212 17.688 10.418 18.643 11.852 18.674C10.736 19.547 9.319 20.073 7.785 20.073C7.516 20.073 7.258 20.061 7 20.028C8.453 20.965 10.175 21.5 12.032 21.5C18.068 21.5 21.368 16.5 21.368 12.166C21.368 12.021 21.363 11.881 21.356 11.742C22.007 11.28 22.554 10.703 23 10.039Z" fill="white"/>
</g>
<path d="M29.25 15C29.25 22.8701 22.8701 29.25 15 29.25C7.12994 29.25 0.75 22.8701 0.75 15C0.75 7.12994 7.12994 0.75 15 0.75C22.8701 0.75 29.25 7.12994 29.25 15Z" stroke="white" stroke-width="1.5"/>
<defs>
<clipPath id="clip0">
<rect width="16" height="16" fill="white" transform="translate(7 7)"/>
</clipPath>
</defs>
</svg>
